1-js/04-object-basics/03-garbage-collection/garbage-collection-1.svg

<?xml version="1.0" encoding="UTF-8"?>
<svg width="463px" height="204px" viewBox="0 0 463 204" version="1.1" xmlns="http://www.w3.org/2000/svg" xmlns:xlink="http://www.w3.org/1999/xlink">
    <!-- Generator: sketchtool 61.2 (101010) - https://sketch.com -->
    <title>garbage-collection-1.svg</title>
    <desc>Created with sketchtool.</desc>
    <defs>
        <rect id="path-1" x="0" y="0" width="80" height="28"></rect>
        <rect id="path-3" x="0" y="0" width="40" height="20"></rect>
        <rect id="path-5" x="0" y="0" width="40" height="20"></rect>
        <rect id="path-7" x="0" y="0" width="40" height="20"></rect>
        <rect id="path-9" x="0" y="0" width="40" height="20"></rect>
        <rect id="path-11" x="0" y="0" width="40" height="20"></rect>
        <rect id="path-13" x="0" y="0" width="40" height="20"></rect>
        <rect id="path-15" x="0" y="0" width="40" height="20"></rect>
        <rect id="path-17" x="0" y="0" width="40" height="20"></rect>
        <rect id="path-19" x="0" y="0" width="40" height="20"></rect>
        <rect id="path-21" x="0" y="0" width="40" height="20"></rect>
        <rect id="path-23" x="0" y="0" width="40" height="20"></rect>
    </defs>
    <g id="garbage-collection" stroke="none" stroke-width="1" fill="none" fill-rule="evenodd">
        <g id="garbage-collection-1.svg">
            <g id="Rectangle-1-Clipped" transform="translate(106.000000, 8.000000)">
                <mask id="mask-2" fill="white">
                    <use xlink:href="#path-1"></use>
                </mask>
                <g id="path-1"></g>
                <g id="Rectangle-1" mask="url(#mask-2)" fill="#FFF9EB" stroke="#E8C48E" stroke-width="4">
                    <rect id="path-1" x="0" y="0" width="80" height="28"></rect>
                </g>
            </g>
            <text id="&lt;global&gt;" fill="#8A704D" font-family="PTMono-Regular, PT Mono" font-size="14" font-weight="normal">
                <tspan x="115" y="26">&lt;global&gt;</tspan>
            </text>
            <g id="Rectangle-2-Clipped" transform="translate(360.000000, 99.000000)">
                <mask id="mask-4" fill="white">
                    <use xlink:href="#path-3"></use>
                </mask>
                <g id="path-3"></g>
                <g id="Rectangle-2" mask="url(#mask-4)" fill="#FFF9EB" fill-opacity="0.8" stroke="#BCA68E" stroke-width="4">
                    <rect id="path-3" x="0" y="0" width="40" height="20"></rect>
                </g>
            </g>
            <g id="Rectangle-2-Copy-2-Clipped" transform="translate(267.000000, 99.000000)">
                <mask id="mask-6" fill="white">
                    <use xlink:href="#path-5"></use>
                </mask>
                <g id="path-5"></g>
                <g id="Rectangle-2-Copy-2" mask="url(#mask-6)" fill="#FFF9EB" fill-opacity="0.8" stroke="#BCA68E" stroke-width="4">
                    <rect id="path-5" x="0" y="0" width="40" height="20"></rect>
                </g>
            </g>
            <g id="Rectangle-2-Copy-2-Clipped" transform="translate(126.000000, 79.000000)">
                <mask id="mask-8" fill="white">
                    <use xlink:href="#path-7"></use>
                </mask>
                <g id="path-7"></g>
                <g id="Rectangle-2-Copy-2" mask="url(#mask-8)" fill="#FFF9EB" stroke="#BCA68E" stroke-width="4">
                    <rect id="path-7" x="0" y="0" width="40" height="20"></rect>
                </g>
            </g>
            <g id="Rectangle-2-Copy-Clipped" transform="translate(313.000000, 53.000000)">
                <mask id="mask-10" fill="white">
                    <use xlink:href="#path-9"></use>
                </mask>
                <g id="path-9"></g>
                <g id="Rectangle-2-Copy" mask="url(#mask-10)" fill="#FFF9EB" fill-opacity="0.8" stroke="#BCA68E" stroke-width="4">
                    <rect id="path-9" x="0" y="0" width="40" height="20"></rect>
                </g>
            </g>
            <g id="Rectangle-2-Copy-3-Clipped" transform="translate(176.000000, 129.000000)">
                <mask id="mask-12" fill="white">
                    <use xlink:href="#path-11"></use>
                </mask>
                <g id="path-11"></g>
                <g id="Rectangle-2-Copy-3" mask="url(#mask-12)" fill="#FFF9EB" stroke="#BCA68E" stroke-width="4">
                    <rect id="path-11" x="0" y="0" width="40" height="20"></rect>
                </g>
            </g>
            <g id="Rectangle-2-Copy-8-Clipped" transform="translate(196.000000, 69.000000)">
                <mask id="mask-14" fill="white">
                    <use xlink:href="#path-13"></use>
                </mask>
                <g id="path-13"></g>
                <g id="Rectangle-2-Copy-8" mask="url(#mask-14)" fill="#FFF9EB" stroke="#BCA68E" stroke-width="4">
                    <rect id="path-13" x="0" y="0" width="40" height="20"></rect>
                </g>
            </g>
            <g id="Rectangle-2-Copy-4-Clipped" transform="translate(128.000000, 139.000000)">
                <mask id="mask-16" fill="white">
                    <use xlink:href="#path-15"></use>
                </mask>
                <g id="path-15"></g>
                <g id="Rectangle-2-Copy-4" mask="url(#mask-16)" fill="#FFF9EB" stroke="#BCA68E" stroke-width="4">
                    <rect id="path-15" x="0" y="0" width="40" height="20"></rect>
                </g>
            </g>
            <g id="Rectangle-2-Copy-5-Clipped" transform="translate(76.000000, 131.000000)">
                <mask id="mask-18" fill="white">
                    <use xlink:href="#path-17"></use>
                </mask>
                <g id="path-17"></g>
                <g id="Rectangle-2-Copy-5" mask="url(#mask-18)" fill="#FFF9EB" stroke="#BCA68E" stroke-width="4">
                    <rect id="path-17" x="0" y="0" width="40" height="20"></rect>
                </g>
            </g>
            <g id="Rectangle-2-Copy-6-Clipped" transform="translate(76.000000, 71.000000)">
                <mask id="mask-20" fill="white">
                    <use xlink:href="#path-19"></use>
                </mask>
                <g id="path-19"></g>
                <g id="Rectangle-2-Copy-6" mask="url(#mask-20)" fill="#FFF9EB" stroke="#BCA68E" stroke-width="4">
                    <rect id="path-19" x="0" y="0" width="40" height="20"></rect>
                </g>
            </g>
            <g id="Rectangle-2-Copy-7-Clipped" transform="translate(27.000000, 57.000000)">
                <mask id="mask-22" fill="white">
                    <use xlink:href="#path-21"></use>
                </mask>
                <g id="path-21"></g>
                <g id="Rectangle-2-Copy-7" mask="url(#mask-22)" fill="#FFF9EB" stroke="#BCA68E" stroke-width="4">
                    <rect id="path-21" x="0" y="0" width="40" height="20"></rect>
                </g>
            </g>
            <line x1="148.5" y1="40.5" x2="148.5" y2="71.5" id="Line" stroke="#EE6B47" stroke-width="2" fill="#EE6B47"></line>
            <polygon id="Line-decoration-1" stroke="#EE6B47" stroke-width="2" fill="#EE6B47" points="148.5 71.5 151.5 60.7 145.5 60.7"></polygon>
            <line x1="148.5" y1="105.5" x2="148.5" y2="129.5" id="Line-Copy" stroke="#EE6B47" stroke-width="2" fill="#EE6B47"></line>
            <polygon id="Line-Copy-decoration-1" stroke="#EE6B47" stroke-width="2" fill="#EE6B47" points="148.5 129.5 151.5 118.7 145.5 118.7"></polygon>
            <line x1="319.5" y1="77.5" x2="300.5" y2="93.5" id="Line-2" stroke="#EE6B47" stroke-width="2" fill-opacity="0.8" fill="#EE6B47"></line>
            <polygon id="Line-2-decoration-1" stroke="#EE6B47" stroke-width="2" fill-opacity="0.8" fill="#EE6B47" points="300.5 93.5 310.693448 88.8380675 306.828634 84.2486004"></polygon>
            <line x1="127.5" y1="47.5" x2="108.5" y2="63.5" id="Line-2" stroke="#EE6B47" stroke-width="2" fill="#EE6B47"></line>
            <polygon id="Line-2-decoration-1" stroke="#EE6B47" stroke-width="2" fill="#EE6B47" points="108.5 63.5 118.693448 58.8380675 114.828634 54.2486004"></polygon>
            <line x1="97.5" y1="42.5" x2="74.5" y2="51.5" id="Line-2-Copy-2" stroke="#EE6B47" stroke-width="2" fill="#EE6B47"></line>
            <polygon id="Line-2-Copy-2-decoration-1" stroke="#EE6B47" stroke-width="2" fill="#EE6B47" points="74.5 51.5 85.6506201 50.3582154 83.464224 44.7707587"></polygon>
            <line x1="133.5" y1="107.5" x2="114.5" y2="123.5" id="Line-2-Copy" stroke="#EE6B47" stroke-width="2" fill="#EE6B47"></line>
            <polygon id="Line-2-Copy-decoration-1" stroke="#EE6B47" stroke-width="2" fill="#EE6B47" points="114.5 123.5 124.693448 118.838068 120.828634 114.2486"></polygon>
            <line x1="313.070628" y1="109.5" x2="352.425466" y2="109.5" id="Line" stroke="#EE6B47" stroke-width="2" fill="#EE6B47"></line>
            <polygon id="Line-decoration-1" stroke="#EE6B47" stroke-width="2" fill="#EE6B47" points="352.425466 109.5 341.625466 106.5 341.625466 112.5"></polygon>
            <line x1="170.5" y1="107.5" x2="188.5" y2="122.5" id="Line" stroke="#EE6B47" stroke-width="2" fill="#EE6B47"></line>
            <polygon id="Line-decoration-1" stroke="#EE6B47" stroke-width="2" fill="#EE6B47" points="188.5 122.5 182.123763 113.281345 178.282657 117.890672"></polygon>
            <line x1="202.5" y1="154.5" x2="220.5" y2="169.5" id="Line-Copy-6" stroke="#EE6B47" stroke-width="2" fill="#EE6B47"></line>
            <polygon id="Line-Copy-6-decoration-1" stroke="#EE6B47" stroke-width="2" fill="#EE6B47" points="220.5 169.5 214.123763 160.281345 210.282657 164.890672"></polygon>
            <line x1="170.5" y1="87.5" x2="190.5" y2="80.5" id="Line-Copy-5" stroke="#EE6B47" stroke-width="2" fill="#EE6B47"></line>
            <polygon id="Line-Copy-5-decoration-1" stroke="#EE6B47" stroke-width="2" fill="#EE6B47" points="190.5 80.5 179.315278 81.2362095 181.297381 86.8993597"></polygon>
            <line x1="209.5" y1="120.5" x2="223.5" y2="98.5" id="Line-Copy-4" stroke="#EE6B47" stroke-width="2" fill="#EE6B47"></line>
            <polygon id="Line-Copy-4-decoration-1" stroke="#EE6B47" stroke-width="2" fill="#EE6B47" points="223.5 98.5 215.17076 106.000918 220.232729 109.222171"></polygon>
            <line x1="46.5" y1="82.5" x2="78.5" y2="122.5" id="Line-Copy-3" stroke="#EE6B47" stroke-width="2" fill="#EE6B47"></line>
            <polygon id="Line-Copy-3-decoration-1" stroke="#EE6B47" stroke-width="2" fill="#EE6B47" points="78.5 122.5 74.0958999 112.192532 69.4106871 115.940702"></polygon>
            <g id="Rectangle-2-Copy-9-Clipped" transform="translate(219.000000, 177.000000)">
                <mask id="mask-24" fill="white">
                    <use xlink:href="#path-23"></use>
                </mask>
                <g id="path-25"></g>
                <g id="Rectangle-2-Copy-9" mask="url(#mask-24)" fill="#FFF9EB" stroke="#BCA68E" stroke-width="4">
                    <rect id="path-25" x="0" y="0" width="40" height="20"></rect>
                </g>
            </g>
            <line x1="187.5" y1="41.5" x2="208.5" y2="62.5" id="Line-Copy-2" stroke="#EE6B47" stroke-width="2" fill="#EE6B47"></line>
            <polygon id="Line-Copy-2-decoration-1" stroke="#EE6B47" stroke-width="2" fill="#EE6B47" points="208.5 62.5 202.984567 52.7419264 198.741926 56.9845671"></polygon>
            <path id="Line-Copy" d="M357.5,79.5 L371.711812,86.059298 L367.026,89.807 L370.280869,93.875305 L370.905564,94.6561738 L369.343826,95.9055639 L368.719131,95.124695 L365.464,91.056 L360.779649,94.8050287 L357.5,79.5 Z" fill="#EE6B47" fill-rule="nonzero"></path>
        </g>
    </g>
</svg>

<svg xmlns="http://www.w3.org/2000/svg" xmlns:xlink="http://www.w3.org/1999/xlink" width="463" height="204" viewBox="0 0 463 204"><defs><style>@import url(https://fonts.googleapis.com/css?family=Open+Sans:bold,italic,bolditalic%7CPT+Mono);@font-face{font-family:&apos;PT Mono&apos;;font-weight:700;font-style:normal;src:local(&apos;PT MonoBold&apos;),url(/font/PTMonoBold.woff2) format(&apos;woff2&apos;),url(/font/PTMonoBold.woff) format(&apos;woff&apos;),url(/font/PTMonoBold.ttf) format(&apos;truetype&apos;)}</style></defs><defs><path id="path-1" d="M0 0h80v28H0z"/><path id="path-3" d="M0 0h40v20H0z"/><path id="path-5" d="M0 0h40v20H0z"/><path id="path-7" d="M0 0h40v20H0z"/><path id="path-9" d="M0 0h40v20H0z"/><path id="path-11" d="M0 0h40v20H0z"/><path id="path-13" d="M0 0h40v20H0z"/><path id="path-15" d="M0 0h40v20H0z"/><path id="path-17" d="M0 0h40v20H0z"/><path id="path-19" d="M0 0h40v20H0z"/><path id="path-21" d="M0 0h40v20H0z"/><path id="path-23" d="M0 0h40v20H0z"/></defs><g id="garbage-collection" fill="none" fill-rule="evenodd" stroke="none" stroke-width="1"><g id="garbage-collection-1.svg"><g id="Rectangle-1-Clipped" transform="translate(106 8)"><mask id="mask-2" fill="#fff"><use xlink:href="#path-1"/></mask><g id="Rectangle-1" fill="#FFF9EB" stroke="#E8C48E" stroke-width="4" mask="url(#mask-2)"><path id="path-1" d="M0 0h80v28H0z"/></g></g><text id="&lt;global&gt;" fill="#8A704D" font-family="PTMono-Regular, PT Mono" font-size="14" font-weight="normal"><tspan x="115" y="26">&lt;global&gt;</tspan></text><g id="Rectangle-2-Clipped" transform="translate(360 99)"><mask id="mask-4" fill="#fff"><use xlink:href="#path-3"/></mask><g id="Rectangle-2" fill="#FFF9EB" fill-opacity=".8" stroke="#BCA68E" stroke-width="4" mask="url(#mask-4)"><path id="path-3" d="M0 0h40v20H0z"/></g></g><g id="Rectangle-2-Copy-2-Clipped" transform="translate(267 99)"><mask id="mask-6" fill="#fff"><use xlink:href="#path-5"/></mask><g id="Rectangle-2-Copy-2" fill="#FFF9EB" fill-opacity=".8" stroke="#BCA68E" stroke-width="4" mask="url(#mask-6)"><path id="path-5" d="M0 0h40v20H0z"/></g></g><g id="Rectangle-2-Copy-2-Clipped" transform="translate(126 79)"><mask id="mask-8" fill="#fff"><use xlink:href="#path-7"/></mask><g id="Rectangle-2-Copy-2" fill="#FFF9EB" stroke="#BCA68E" stroke-width="4" mask="url(#mask-8)"><path id="path-7" d="M0 0h40v20H0z"/></g></g><g id="Rectangle-2-Copy-Clipped" transform="translate(313 53)"><mask id="mask-10" fill="#fff"><use xlink:href="#path-9"/></mask><g id="Rectangle-2-Copy" fill="#FFF9EB" fill-opacity=".8" stroke="#BCA68E" stroke-width="4" mask="url(#mask-10)"><path id="path-9" d="M0 0h40v20H0z"/></g></g><g id="Rectangle-2-Copy-3-Clipped" transform="translate(176 129)"><mask id="mask-12" fill="#fff"><use xlink:href="#path-11"/></mask><g id="Rectangle-2-Copy-3" fill="#FFF9EB" stroke="#BCA68E" stroke-width="4" mask="url(#mask-12)"><path id="path-11" d="M0 0h40v20H0z"/></g></g><g id="Rectangle-2-Copy-8-Clipped" transform="translate(196 69)"><mask id="mask-14" fill="#fff"><use xlink:href="#path-13"/></mask><g id="Rectangle-2-Copy-8" fill="#FFF9EB" stroke="#BCA68E" stroke-width="4" mask="url(#mask-14)"><path id="path-13" d="M0 0h40v20H0z"/></g></g><g id="Rectangle-2-Copy-4-Clipped" transform="translate(128 139)"><mask id="mask-16" fill="#fff"><use xlink:href="#path-15"/></mask><g id="Rectangle-2-Copy-4" fill="#FFF9EB" stroke="#BCA68E" stroke-width="4" mask="url(#mask-16)"><path id="path-15" d="M0 0h40v20H0z"/></g></g><g id="Rectangle-2-Copy-5-Clipped" transform="translate(76 131)"><mask id="mask-18" fill="#fff"><use xlink:href="#path-17"/></mask><g id="Rectangle-2-Copy-5" fill="#FFF9EB" stroke="#BCA68E" stroke-width="4" mask="url(#mask-18)"><path id="path-17" d="M0 0h40v20H0z"/></g></g><g id="Rectangle-2-Copy-6-Clipped" transform="translate(76 71)"><mask id="mask-20" fill="#fff"><use xlink:href="#path-19"/></mask><g id="Rectangle-2-Copy-6" fill="#FFF9EB" stroke="#BCA68E" stroke-width="4" mask="url(#mask-20)"><path id="path-19" d="M0 0h40v20H0z"/></g></g><g id="Rectangle-2-Copy-7-Clipped" transform="translate(27 57)"><mask id="mask-22" fill="#fff"><use xlink:href="#path-21"/></mask><g id="Rectangle-2-Copy-7" fill="#FFF9EB" stroke="#BCA68E" stroke-width="4" mask="url(#mask-22)"><path id="path-21" d="M0 0h40v20H0z"/></g></g><path id="Line" fill="#EE6B47" stroke="#EE6B47" stroke-width="2" d="M148.5 40.5v31"/><path id="Line-decoration-1" fill="#EE6B47" stroke="#EE6B47" stroke-width="2" d="M148.5 71.5l3-10.8h-6z"/><path id="Line-Copy" fill="#EE6B47" stroke="#EE6B47" stroke-width="2" d="M148.5 105.5v24"/><path id="Line-Copy-decoration-1" fill="#EE6B47" stroke="#EE6B47" stroke-width="2" d="M148.5 129.5l3-10.8h-6z"/><path id="Line-2" fill="#EE6B47" fill-opacity=".8" stroke="#EE6B47" stroke-width="2" d="M319.5 77.5l-19 16"/><path id="Line-2-decoration-1" fill="#EE6B47" fill-opacity=".8" stroke="#EE6B47" stroke-width="2" d="M300.5 93.5l10.193-4.662-3.864-4.59z"/><path id="Line-2" fill="#EE6B47" stroke="#EE6B47" stroke-width="2" d="M127.5 47.5l-19 16"/><path id="Line-2-decoration-1" fill="#EE6B47" stroke="#EE6B47" stroke-width="2" d="M108.5 63.5l10.193-4.662-3.864-4.59z"/><path id="Line-2-Copy-2" fill="#EE6B47" stroke="#EE6B47" stroke-width="2" d="M97.5 42.5l-23 9"/><path id="Line-2-Copy-2-decoration-1" fill="#EE6B47" stroke="#EE6B47" stroke-width="2" d="M74.5 51.5l11.15-1.142-2.186-5.587z"/><path id="Line-2-Copy" fill="#EE6B47" stroke="#EE6B47" stroke-width="2" d="M133.5 107.5l-19 16"/><path id="Line-2-Copy-decoration-1" fill="#EE6B47" stroke="#EE6B47" stroke-width="2" d="M114.5 123.5l10.193-4.662-3.864-4.59z"/><path id="Line" fill="#EE6B47" stroke="#EE6B47" stroke-width="2" d="M313.071 109.5h39.354"/><path id="Line-decoration-1" fill="#EE6B47" stroke="#EE6B47" stroke-width="2" d="M352.425 109.5l-10.8-3v6z"/><path id="Line" fill="#EE6B47" stroke="#EE6B47" stroke-width="2" d="M170.5 107.5l18 15"/><path id="Line-decoration-1" fill="#EE6B47" stroke="#EE6B47" stroke-width="2" d="M188.5 122.5l-6.376-9.219-3.841 4.61z"/><path id="Line-Copy-6" fill="#EE6B47" stroke="#EE6B47" stroke-width="2" d="M202.5 154.5l18 15"/><path id="Line-Copy-6-decoration-1" fill="#EE6B47" stroke="#EE6B47" stroke-width="2" d="M220.5 169.5l-6.376-9.219-3.841 4.61z"/><path id="Line-Copy-5" fill="#EE6B47" stroke="#EE6B47" stroke-width="2" d="M170.5 87.5l20-7"/><path id="Line-Copy-5-decoration-1" fill="#EE6B47" stroke="#EE6B47" stroke-width="2" d="M190.5 80.5l-11.185.736 1.982 5.663z"/><path id="Line-Copy-4" fill="#EE6B47" stroke="#EE6B47" stroke-width="2" d="M209.5 120.5l14-22"/><path id="Line-Copy-4-decoration-1" fill="#EE6B47" stroke="#EE6B47" stroke-width="2" d="M223.5 98.5l-8.33 7.5 5.063 3.222z"/><path id="Line-Copy-3" fill="#EE6B47" stroke="#EE6B47" stroke-width="2" d="M46.5 82.5l32 40"/><path id="Line-Copy-3-decoration-1" fill="#EE6B47" stroke="#EE6B47" stroke-width="2" d="M78.5 122.5l-4.404-10.307-4.685 3.748z"/><g id="Rectangle-2-Copy-9-Clipped" transform="translate(219 177)"><mask id="mask-24" fill="#fff"><use xlink:href="#path-23"/></mask><g id="Rectangle-2-Copy-9" fill="#FFF9EB" stroke="#BCA68E" stroke-width="4" mask="url(#mask-24)"><path id="path-25" d="M0 0h40v20H0z"/></g></g><path id="Line-Copy-2" fill="#EE6B47" stroke="#EE6B47" stroke-width="2" d="M187.5 41.5l21 21"/><path id="Line-Copy-2-decoration-1" fill="#EE6B47" stroke="#EE6B47" stroke-width="2" d="M208.5 62.5l-5.515-9.758-4.243 4.243z"/><path id="Line-Copy" fill="#EE6B47" fill-rule="nonzero" d="M357.5 79.5l14.212 6.56-4.686 3.747 3.255 4.068.625.781-1.562 1.25-.625-.781-3.255-4.069-4.684 3.749L357.5 79.5z"/></g></g></svg>
